T: Mary Brennan's Favourite
M: 2/4
L: 1/8
K: Gmaj
B>B{d}B>A B>cd>B | A>GE>F [B,2G2] [G,G] :|[2 A>GE>F [G,2G2] [G,G]- |||: G>E D2 D>FG>B | A>GE>F G>Bd>c ||: B2 B>A B>cd>B | A2 A>G A>dd>c |
